src/assets/imgs/reviews-page/bg.svg

<svg fill="none" height="1698" viewBox="0 0 1350 1698" width="1350" xmlns="http://www.w3.org/2000/svg" xmlns:xlink="http://www.w3.org/1999/xlink"><filter id="a" color-interpolation-filters="sRGB" filterUnits="userSpaceOnUse" height="1698" width="1370" x="-10" y="0"><feFlood flood-opacity="0" result="BackgroundImageFix"/><feColorMatrix in="SourceAlpha" type="matrix" values="0 0 0 0 0 0 0 0 0 0 0 0 0 0 0 0 0 0 127 0"/><feOffset dy="4"/><feGaussianBlur stdDeviation="5"/><feColorMatrix type="matrix" values="0 0 0 0 0 0 0 0 0 0 0 0 0 0 0 0 0 0 0.25 0"/><feBlend in2="BackgroundImageFix" mode="normal" result="effect1_dropShadow"/><feBlend in="SourceGraphic" in2="effect1_dropShadow" mode="normal" result="shape"/></filter><filter id="b" color-interpolation-filters="sRGB" filterUnits="userSpaceOnUse" height="1668.74" width="1359" x="-4" y="8.70483"><feFlood flood-opacity="0" result="BackgroundImageFix"/><feColorMatrix in="SourceAlpha" type="matrix" values="0 0 0 0 0 0 0 0 0 0 0 0 0 0 0 0 0 0 127 0"/><feOffset dy="4"/><feGaussianBlur stdDeviation="2"/><feColorMatrix type="matrix" values="0 0 0 0 0 0 0 0 0 0 0 0 0 0 0 0 0 0 0.25 0"/><feBlend in2="BackgroundImageFix" mode="normal" result="effect1_dropShadow"/><feBlend in="SourceGraphic" in2="effect1_dropShadow" mode="normal" result="shape"/></filter><radialGradient id="c" cx="0" cy="0" gradientTransform="matrix(1830.95722955 1455.68925793 -1082.32470034 1361.34152534 138.25 582.824)" gradientUnits="userSpaceOnUse" r="1"><stop offset="0" stop-color="#414141"/><stop offset="1"/></radialGradient><g filter="url(#a)"><path d="m.00003051 29.2973c383.47396949-109.5026 711.37796949 215.8417 1349.99996949-21.71608v1600.87878c-316.8 82.81-1247.5 112.03-1349.99996949 12.67-.00006865-105.22 0-1533.2074 0-1591.8327z" fill="#942fe5"/></g><g filter="url(#b)"><path d="m.00015307 39.4817c300.99984693-72.8697 811.15784693 206.5493 1349.99984693-30.77687 0 100.48017 1 1276.82517 1 1571.47517-338 89.62-1279 129.9-1351 33.95.00003052-94.6.00016785-1415.781.00015307-1574.6483z" fill="url(#c)"/></g></svg>

<svg width="1350" height="1698" viewBox="0 0 1350 1698" fill="none" xmlns="http://www.w3.org/2000/svg">
<g filter="url(#filter0_d)">
<path d="M3.05139e-05 29.2973C383.474 -80.2053 711.378 245.139 1350 7.58122C1350 98.5328 1350 1202.13 1350 1608.46C1033.2 1691.27 102.5 1720.49 3.05139e-05 1621.13C-3.81424e-05 1515.91 3.05139e-05 87.9226 3.05139e-05 29.2973Z" fill="#942FE5"/>
</g>
<g filter="url(#filter1_d)">
<path d="M0.000153065 39.4817C301 -33.388 811.158 246.031 1350 8.70483C1350 109.185 1351 1285.53 1351 1580.18C1013 1669.8 72 1710.08 0 1614.13C3.05176e-05 1519.53 0.000167847 198.349 0.000153065 39.4817Z" fill="url(#paint0_radial)"/>
</g>
<defs>
<filter id="filter0_d" x="-10" y="0" width="1370" height="1698" filterUnits="userSpaceOnUse" color-interpolation-filters="sRGB">
<feFlood flood-opacity="0" result="BackgroundImageFix"/>
<feColorMatrix in="SourceAlpha" type="matrix" values="0 0 0 0 0 0 0 0 0 0 0 0 0 0 0 0 0 0 127 0"/>
<feOffset dy="4"/>
<feGaussianBlur stdDeviation="5"/>
<feColorMatrix type="matrix" values="0 0 0 0 0 0 0 0 0 0 0 0 0 0 0 0 0 0 0.25 0"/>
<feBlend mode="normal" in2="BackgroundImageFix" result="effect1_dropShadow"/>
<feBlend mode="normal" in="SourceGraphic" in2="effect1_dropShadow" result="shape"/>
</filter>
<filter id="filter1_d" x="-4" y="8.70483" width="1359" height="1668.74" filterUnits="userSpaceOnUse" color-interpolation-filters="sRGB">
<feFlood flood-opacity="0" result="BackgroundImageFix"/>
<feColorMatrix in="SourceAlpha" type="matrix" values="0 0 0 0 0 0 0 0 0 0 0 0 0 0 0 0 0 0 127 0"/>
<feOffset dy="4"/>
<feGaussianBlur stdDeviation="2"/>
<feColorMatrix type="matrix" values="0 0 0 0 0 0 0 0 0 0 0 0 0 0 0 0 0 0 0.25 0"/>
<feBlend mode="normal" in2="BackgroundImageFix" result="effect1_dropShadow"/>
<feBlend mode="normal" in="SourceGraphic" in2="effect1_dropShadow" result="shape"/>
</filter>
<radialGradient id="paint0_radial" cx="0" cy="0" r="1" gradientUnits="userSpaceOnUse" gradientTransform="translate(138.25 582.824) rotate(38.4862) scale(2339.11 1739.16)">
<stop stop-color="#414141"/>
<stop offset="1"/>
</radialGradient>
</defs>
</svg>
